swiss/communes/4864.svg

<?xml version="1.0" encoding="UTF-8" standalone="no"?>
<!-- Created with Inkscape (http://www.inkscape.org/) -->

<svg
   xmlns:dc="http://purl.org/dc/elements/1.1/"
   xmlns:cc="http://creativecommons.org/ns#"
   xmlns:rdf="http://www.w3.org/1999/02/22-rdf-syntax-ns#"
   xmlns:svg="http://www.w3.org/2000/svg"
   xmlns="http://www.w3.org/2000/svg"
   xmlns:sodipodi="http://sodipodi.sourceforge.net/DTD/sodipodi-0.dtd"
   xmlns:inkscape="http://www.inkscape.org/namespaces/inkscape"
   version="1.0"
   width="208.86046"
   height="244.65999"
   id="svg2780"
   inkscape:version="0.92.3 (2405546, 2018-03-11)"
   sodipodi:docname="Steckborn-blazon.svg">
  <metadata
     id="metadata27">
    <rdf:RDF>
      <cc:Work
         rdf:about="">
        <dc:format>image/svg+xml</dc:format>
        <dc:type
           rdf:resource="http://purl.org/dc/dcmitype/StillImage" />
        <dc:title></dc:title>
      </cc:Work>
    </rdf:RDF>
  </metadata>
  <sodipodi:namedview
     pagecolor="#ffffff"
     bordercolor="#666666"
     borderopacity="1"
     objecttolerance="10"
     gridtolerance="10"
     guidetolerance="10"
     inkscape:pageopacity="0"
     inkscape:pageshadow="2"
     inkscape:window-width="1752"
     inkscape:window-height="1281"
     id="namedview25"
     showgrid="false"
     inkscape:zoom="1.6617009"
     inkscape:cx="103.27163"
     inkscape:cy="125.33141"
     inkscape:window-x="252"
     inkscape:window-y="123"
     inkscape:window-maximized="0"
     inkscape:current-layer="svg2780"
     inkscape:measure-start="-121.277,12.1111"
     inkscape:measure-end="-116.334,12.1111" />
  <defs
     id="defs2782" />
  <path
     inkscape:connector-curvature="0"
     style="fill:#1b63c6;fill-opacity:1;fill-rule:evenodd;stroke:#000000;stroke-width:1.99999988;stroke-linecap:butt;stroke-miterlimit:4;stroke-dashoffset:0;stroke-opacity:1"
     id="path4212"
     d="m 1,1 3.761095,158.00304 c 2.686489,112.85918 196.651755,112.85918 199.338255,0 L 207.86045,1 Z" />
  <path
     style="fill:#feeb00;fill-opacity:1;stroke:#000000;stroke-width:1;stroke-miterlimit:4;stroke-dasharray:none;stroke-opacity:1"
     d="M 104.42969 61.525391 A 56.964016 56.964016 0 0 0 47.466797 118.49023 A 56.964016 56.964016 0 0 0 104.42969 175.45312 A 56.964016 56.964016 0 0 0 161.39453 118.49023 A 56.964016 56.964016 0 0 0 104.42969 61.525391 z M 104.42969 79.880859 A 38.609329 38.609329 0 0 1 143.03906 118.49023 A 38.609329 38.609329 0 0 1 104.42969 157.09961 A 38.609329 38.609329 0 0 1 65.820312 118.49023 A 38.609329 38.609329 0 0 1 104.42969 79.880859 z "
     id="path18511" />
  <g
     id="g18485-7-2"
     transform="matrix(-0.67457312,0.57207634,0.64678763,0.76267015,-67.093664,81.186863)"
     style="stroke-width:1.06329525">
    <path
       sodipodi:nodetypes="cscscc"
       inkscape:connector-curvature="0"
       d="M -126.39165,32.585524 V 233.45105 c 0,2.46966 2.49513,4.40043 5.10383,4.40043 2.6087,0 5.10383,-1.93077 5.10383,-4.40043 V 32.58552 c -3.40255,10e-7 -6.80511,3e-6 -10.20766,4e-6 z"
       style="fill:#feeb00;fill-opacity:1;fill-rule:evenodd;stroke:#000000;stroke-width:1.06329525px;stroke-linecap:butt;stroke-linejoin:miter;stroke-opacity:1"
       id="path18415-2-78-5" />
    <path
       sodipodi:nodetypes="csccscc"
       inkscape:connector-curvature="0"
       d="m -128.21253,37.229461 c -3.55109,0 -6.2436,-2.694437 -6.2436,-6.243602 0,-3.559426 2.68795,-6.224796 6.2248,-6.224796 4.63649,0 9.27297,0 13.90946,0 3.53685,0 6.2248,2.66537 6.2248,6.224796 0,3.549165 -2.69251,6.243602 -6.2436,6.243602 -4.62395,0 -9.24791,0 -13.87186,0 z"
       style="fill:#feeb00;fill-opacity:1;fill-rule:evenodd;stroke:#000000;stroke-width:1.06329525px;stroke-linecap:butt;stroke-linejoin:miter;stroke-opacity:1"
       id="path18417-6-6-7" />
    <path
       sodipodi:nodetypes="csccscc"
       inkscape:connector-curvature="0"
       d="m -126.66696,76.254843 c -2.79816,0 -4.91978,-2.122651 -4.91978,-4.91865 0,-2.804081 2.11803,-4.903834 4.90497,-4.903834 3.65342,0 7.30684,0 10.96026,0 2.78694,0 4.90497,2.099753 4.90497,4.903834 0,2.795999 -2.12162,4.91865 -4.91978,4.91865 -3.64355,0 -7.28709,0 -10.93064,0 z"
       style="fill:#feeb00;fill-opacity:1;fill-rule:evenodd;stroke:#000000;stroke-width:1.06329525px;stroke-linecap:butt;stroke-linejoin:miter;stroke-opacity:1"
       id="path18417-7-1-0-6" />
  </g>
  <g
     id="g18485-7"
     transform="matrix(0.67457312,0.57207634,-0.64678763,0.76267015,276.40821,81.186863)"
     style="stroke-width:1.06329525">
    <path
       sodipodi:nodetypes="cscscc"
       inkscape:connector-curvature="0"
       d="M -126.39165,32.585524 V 233.45105 c 0,2.46966 2.49513,4.40043 5.10383,4.40043 2.6087,0 5.10383,-1.93077 5.10383,-4.40043 V 32.58552 c -3.40255,10e-7 -6.80511,3e-6 -10.20766,4e-6 z"
       style="fill:#feeb00;fill-opacity:1;fill-rule:evenodd;stroke:#000000;stroke-width:1.06329525px;stroke-linecap:butt;stroke-linejoin:miter;stroke-opacity:1"
       id="path18415-2-78" />
    <path
       sodipodi:nodetypes="csccscc"
       inkscape:connector-curvature="0"
       d="m -128.21253,37.229461 c -3.55109,0 -6.2436,-2.694437 -6.2436,-6.243602 0,-3.559426 2.68795,-6.224796 6.2248,-6.224796 4.63649,0 9.27297,0 13.90946,0 3.53685,0 6.2248,2.66537 6.2248,6.224796 0,3.549165 -2.69251,6.243602 -6.2436,6.243602 -4.62395,0 -9.24791,0 -13.87186,0 z"
       style="fill:#feeb00;fill-opacity:1;fill-rule:evenodd;stroke:#000000;stroke-width:1.06329525px;stroke-linecap:butt;stroke-linejoin:miter;stroke-opacity:1"
       id="path18417-6-6" />
    <path
       sodipodi:nodetypes="csccscc"
       inkscape:connector-curvature="0"
       d="m -126.66696,76.254843 c -2.79816,0 -4.91978,-2.122651 -4.91978,-4.91865 0,-2.804081 2.11803,-4.903834 4.90497,-4.903834 3.65342,0 7.30684,0 10.96026,0 2.78694,0 4.90497,2.099753 4.90497,4.903834 0,2.795999 -2.12162,4.91865 -4.91978,4.91865 -3.64355,0 -7.28709,0 -10.93064,0 z"
       style="fill:#feeb00;fill-opacity:1;fill-rule:evenodd;stroke:#000000;stroke-width:1.06329525px;stroke-linecap:butt;stroke-linejoin:miter;stroke-opacity:1"
       id="path18417-7-1-0" />
  </g>
  <path
     style="fill:#feeb00;fill-opacity:1;stroke:#000000;stroke-width:1;stroke-miterlimit:4;stroke-dasharray:none;stroke-opacity:1"
     d="m 88.162109,63.925781 c -24.135389,7.19254 -40.683366,29.380138 -40.695312,54.564449 0.02057,25.17709 16.566838,47.35446 40.695312,54.54493 m 0,-19.57813 c -13.610022,-6.32304 -22.323071,-19.9597 -22.341797,-34.9668 0.01873,-15.0071 8.731778,-28.643755 22.341797,-34.966792"
     id="path18511-3"
     inkscape:connector-curvature="0"
     sodipodi:nodetypes="cccccc" />
</svg>

<svg xmlns="http://www.w3.org/2000/svg" version="1.0" width="208.86" height="244.66"><path style="fill:#1b63c6;fill-opacity:1;fill-rule:evenodd;stroke:#000;stroke-width:1.99999988;stroke-linecap:butt;stroke-miterlimit:4;stroke-dashoffset:0;stroke-opacity:1" d="m1 1 3.761 158.003c2.687 112.86 196.652 112.86 199.338 0L207.86 1z"/><path style="fill:#feeb00;fill-opacity:1;stroke:#000;stroke-width:1;stroke-miterlimit:4;stroke-dasharray:none;stroke-opacity:1" d="M104.43 61.525a56.964 56.964 0 0 0-56.963 56.965 56.964 56.964 0 0 0 56.963 56.963 56.964 56.964 0 0 0 56.965-56.963 56.964 56.964 0 0 0-56.965-56.965zm0 18.356a38.61 38.61 0 0 1 38.61 38.61 38.61 38.61 0 0 1-38.61 38.609 38.61 38.61 0 0 1-38.61-38.61 38.61 38.61 0 0 1 38.61-38.61z"/><g style="stroke-width:1.06329525"><path d="M-126.392 32.586V233.45c0 2.47 2.495 4.4 5.104 4.4s5.104-1.93 5.104-4.4V32.586h-10.208z" style="fill:#feeb00;fill-opacity:1;fill-rule:evenodd;stroke:#000;stroke-width:1.06329525px;stroke-linecap:butt;stroke-linejoin:miter;stroke-opacity:1" transform="matrix(-.67457 .57208 .64679 .76267 -67.094 81.187)"/><path d="M-128.213 37.23c-3.55 0-6.243-2.695-6.243-6.244 0-3.56 2.688-6.225 6.225-6.225h13.91c3.536 0 6.224 2.665 6.224 6.225 0 3.549-2.693 6.243-6.244 6.243h-13.872zM-126.667 76.255c-2.798 0-4.92-2.123-4.92-4.919 0-2.804 2.118-4.904 4.905-4.904h10.96c2.787 0 4.905 2.1 4.905 4.904 0 2.796-2.121 4.919-4.92 4.919h-10.93z" style="fill:#feeb00;fill-opacity:1;fill-rule:evenodd;stroke:#000;stroke-width:1.06329525px;stroke-linecap:butt;stroke-linejoin:miter;stroke-opacity:1" transform="matrix(-.67457 .57208 .64679 .76267 -67.094 81.187)"/></g><g style="stroke-width:1.06329525"><path d="M-126.392 32.586V233.45c0 2.47 2.495 4.4 5.104 4.4s5.104-1.93 5.104-4.4V32.586h-10.208z" style="fill:#feeb00;fill-opacity:1;fill-rule:evenodd;stroke:#000;stroke-width:1.06329525px;stroke-linecap:butt;stroke-linejoin:miter;stroke-opacity:1" transform="matrix(.67457 .57208 -.64679 .76267 276.408 81.187)"/><path d="M-128.213 37.23c-3.55 0-6.243-2.695-6.243-6.244 0-3.56 2.688-6.225 6.225-6.225h13.91c3.536 0 6.224 2.665 6.224 6.225 0 3.549-2.693 6.243-6.244 6.243h-13.872zM-126.667 76.255c-2.798 0-4.92-2.123-4.92-4.919 0-2.804 2.118-4.904 4.905-4.904h10.96c2.787 0 4.905 2.1 4.905 4.904 0 2.796-2.121 4.919-4.92 4.919h-10.93z" style="fill:#feeb00;fill-opacity:1;fill-rule:evenodd;stroke:#000;stroke-width:1.06329525px;stroke-linecap:butt;stroke-linejoin:miter;stroke-opacity:1" transform="matrix(.67457 .57208 -.64679 .76267 276.408 81.187)"/></g><path style="fill:#feeb00;fill-opacity:1;stroke:#000;stroke-width:1;stroke-miterlimit:4;stroke-dasharray:none;stroke-opacity:1" d="M88.162 63.926c-24.135 7.192-40.683 29.38-40.695 54.564.02 25.177 16.567 47.355 40.695 54.545m0-19.578A38.61 38.61 0 0 1 65.82 118.49a38.61 38.61 0 0 1 22.342-34.967"/></svg>
